X:1
T:Night Watch [2], The
T:Night Watch [2], The
T:Anthony Holborne
C:Anthony Holborne
L:1/8
M:2/2
K:C
V:1 treble 
V:1
 z2 d2 |: e^f g2 f2 e2 | d4 d3 c | Bc d2 c2 B2 | A4 A4 B | cd e2 d2 B2 | c2 B2 A2 G2 | %7
 A2 d2 c2 A2 |1 G6 d2 :|2 G8 |: c4 B4 | A3 G ^F2 E2 | D2 d2 c4 | B3 c d2 gf | e2 d2 c2 B2 | %15
 A3 G ^FG A2 | Bc d4 ^c2 | d8 :: A2 Bc d3 c | B4 A2 c2 | d2 c2 B4 | A6 (e2 | e2) c2 A2 (d2 | %23
 d2) B2 G2 c2 | B2 AG G2 ^F2 | G8 :| %26

